Sites/UniverseChariot/app/img/dest/causes/image(2).svg

<svg width="106" height="106" viewBox="0 0 106 106" fill="none" xmlns="http://www.w3.org/2000/svg">
<circle cx="53" cy="53" r="53" fill="url(#paint0_linear)"/>
<path d="M53.3868 39.2446V18M53.3868 18L46.6491 25.6813M53.3868 18L60.6277 25.6813M53.3868 67.6862V88.7924M53.3868 88.7924L60.2817 81.3187M53.3868 88.7924L46.3723 81.3187M18 53.456H39.1754M18 53.456L25.8889 46.9951M18 53.456L25.8889 60.1433M67.7554 53.456H89M89 53.456L81.7339 46.9951M89 53.456L81.7339 60.1433M45.2651 45.3343H53.3868H61.5084V61.5776H45.3064L45.2858 53.456L45.2651 45.3343Z" stroke="white" stroke-width="2" stroke-linecap="round"/>
<path d="M71.6728 35.1808C71.6451 34.6292 71.1755 34.2045 70.6239 34.2322L61.6352 34.684C61.0837 34.7117 60.659 35.1814 60.6867 35.733C60.7144 36.2845 61.1841 36.7092 61.7356 36.6815L69.7256 36.2799L70.1272 44.2698C70.1549 44.8214 70.6245 45.2461 71.1761 45.2184C71.7277 45.1906 72.1524 44.721 72.1246 44.1694L71.6728 35.1808ZM63.7914 44.3331L71.4158 35.9017L69.9324 34.5602L62.308 42.9916L63.7914 44.3331Z" fill="white"/>
<path d="M35.0846 34.231C34.5323 34.2355 34.0882 34.6867 34.0926 35.239L34.1646 44.2387C34.169 44.791 34.6203 45.2351 35.1726 45.2307C35.7249 45.2263 36.169 44.775 36.1646 44.2227L36.1006 36.223L44.1003 36.159C44.6526 36.1546 45.0967 35.7033 45.0923 35.151C45.0879 34.5987 44.6366 34.1546 44.0843 34.159L35.0846 34.231ZM44.5133 43.0991L35.794 34.5183L34.3912 35.9437L43.1105 44.5246L44.5133 43.0991Z" fill="white"/>
<path d="M34.0926 71.8764C34.0901 72.4287 34.5357 72.8785 35.088 72.881L44.0879 72.9225C44.6402 72.925 45.0899 72.4794 45.0925 71.9271C45.095 71.3748 44.6494 70.9251 44.0971 70.9225L36.0972 70.8856L36.1341 62.8857C36.1366 62.3335 35.691 61.8837 35.1387 61.8811C34.5864 61.8786 34.1366 62.3242 34.1341 62.8765L34.0926 71.8764ZM42.4637 63.1698L34.3888 71.1707L35.7964 72.5914L43.8714 64.5905L42.4637 63.1698Z" fill="white"/>
<path d="M72.022 72.9585C72.5743 72.9545 73.0188 72.5035 73.0147 71.9512L72.9494 62.9515C72.9454 62.3992 72.4945 61.9547 71.9422 61.9588C71.3899 61.9628 70.9455 62.4137 70.9495 62.966L71.0075 70.9658L63.0078 71.0238C62.4555 71.0278 62.011 71.4788 62.015 72.031C62.019 72.5833 62.47 73.0278 63.0223 73.0238L72.022 72.9585ZM63.2167 64.6912L71.3128 72.6707L72.7167 71.2463L64.6206 63.2668L63.2167 64.6912Z" fill="white"/>
<defs>
<linearGradient id="paint0_linear" x1="53" y1="0" x2="53" y2="106" gradientUnits="userSpaceOnUse">
<stop stop-color="#FDAE39"/>
<stop offset="1" stop-color="#C04A1E"/>
</linearGradient>
</defs>
</svg>

<svg width="106" height="106" fill="none" xmlns="http://www.w3.org/2000/svg"><circle cx="53" cy="53" r="53" fill="url(#paint0_linear)"/><path d="M53.387 39.245V18m0 0l-6.738 7.681M53.387 18l7.24 7.681m-7.24 42.005v21.106m0 0l6.895-7.473m-6.895 7.473l-7.015-7.473M18 53.456h21.175m-21.175 0l7.889-6.46M18 53.455l7.889 6.687m41.866-6.687H89m0 0l-7.266-6.46M89 53.455l-7.266 6.687M45.265 45.334h16.243v16.244H45.306l-.02-8.122-.02-8.122z" stroke="#fff" stroke-width="2" stroke-linecap="round"/><path d="M71.673 35.18a1 1 0 00-1.05-.948l-8.988.452a1 1 0 00.1 1.998l7.99-.402.402 7.99a1 1 0 101.998-.1l-.452-8.99zm-7.882 9.153l7.625-8.431-1.484-1.342-7.624 8.432 1.483 1.341zM35.085 34.231a1 1 0 00-.992 1.008l.072 9a1 1 0 102-.016l-.064-8 8-.064a1 1 0 10-.017-2l-9 .072zm9.428 8.868l-8.719-8.58-1.403 1.425 8.72 8.58 1.402-1.425zm-10.42 28.777a1 1 0 00.995 1.005l9 .041a1 1 0 00.01-2l-8-.036.036-8a1 1 0 00-2-.01l-.041 9zm8.37-8.706l-8.074 8 1.407 1.421 8.075-8-1.407-1.421zm29.559 9.789a1 1 0 00.993-1.008l-.066-9a1 1 0 10-2 .015l.058 8-8 .058a1 1 0 10.015 2l9-.066zm-8.805-8.268l8.096 7.98 1.404-1.425-8.096-7.98-1.404 1.425z" fill="#fff"/><defs><linearGradient id="paint0_linear" x1="53" y1="0" x2="53" y2="106" gradientUnits="userSpaceOnUse"><stop stop-color="#FDAE39"/><stop offset="1" stop-color="#C04A1E"/></linearGradient></defs></svg>
